X:44
T: Mahnlied
N: A0399B
O: Europa, Mitteleuropa, Deutschland
N: Dresdner Codex M. 53, vor 1560.
R: Romanze, Ballade, Lied, religioeses Lied
M: 4/2
L: 1/4
K: D
D2 | D2D2=F2D2 | =FEFGA2
E2 | =F2A2GFG2 | A4z2
D2 | D2D2=F2D2 | =FEFGA2
E2 | =F2A2GFG2 | A4z2
FA | A2A2A2A2 | G4E2
A2 | G2=F2E2D2 | =C4z2
E2 | G2A2A2D2 | =FEFGA2
A2 | A2G2=F2E2 | D4z2

